icons/breezeDark/actions/24/node.svg

<svg viewBox="0 0 24 24" xmlns="http://www.w3.org/2000/svg"><path d="m12 4c-.67521.004-1.34721.092995-2 .265625v1.0332031.0117188a7 7 0 0 0 -1.3164062.5449219l-.0078126-.0078126-.7324218-.7324218c-1.16695.68805-2.140075 1.661175-2.828125 2.828125l.5214844.5214844.21875.21875a7 7 0 0 0 -.546875 1.3164062h-.0136719-1.0351563c-.1706199.65304-.2578956 1.32505-.2597656 2 .004.67521.093005 1.34721.265625 2h1.0332031.0117188a7 7 0 0 0 .5449219 1.316406l-.21875.21875-.5214844.521485c.68805 1.16696 1.661165 2.140075 2.828125 2.828125l.5214844-.521485.21875-.21875a7 7 0 0 0 1.3164062.546875v.308594.740234c.65304.17062 1.32504.257896 2 .259766.67496-.0019 1.34696-.08915 2-.259766v-.740234-.308594a7 7 0 0 0 1.316406-.546875l.21875.21875.521485.521485c1.16696-.68805 2.140075-1.661165 2.828125-2.828125l-.521485-.521485-.21875-.21875a7 7 0 0 0 .544922-1.316406h.011719 1.033203c.172629-.65279.261625-1.32479.265625-2-.0019-.67495-.08915-1.34696-.259766-2h-1.035156-.013672a7 7 0 0 0 -.546875-1.3164062l.21875-.21875.521485-.5214844c-.68805-1.16695-1.661175-2.140075-2.828125-2.828125l-.732422.7324218-.007813.0078126a7 7 0 0 0 -1.316406-.5449219v-.0117188-1.0332031c-.65279-.17263-1.32479-.261625-2-.265625zm0 1c.33491.0012.66956.0273719 1 .0761719v.0039062.9199219.0859375a6 6 0 0 1 2.470703 1.0292969l.064453-.0644532.650391-.6503906.001953-.0019531c.53734.40067 1.013946.8758094 1.416016 1.4121094l-.003907.0039062-.65039.6503907-.0625.0625a6 6 0 0 1 1.023437 2.4726562h.089844.921875.003906c.0483.33106.073719.66455.074219 1-.0012.33491-.027372.66955-.076172 1h-.003906-.919922-.085938a6 6 0 0 1 -1.029296 2.470703l.064453.064453.65039.650391.001953.001953c-.400669.53734-.875809 1.013956-1.412109 1.416016l-.003906-.003907-.650391-.65039-.0625-.0625a6 6 0 0 1 -2.472656 1.023437v.089844.921875.003906c-.33106.0483-.66455.073719-1 .074219-.33545-.0005-.66894-.025919-1-.074219v-.003906-.921875-.089844a6 6 0 0 1 -2.4726562-1.023437l-.0625.0625-.6503907.65039-.0039062.003907c-.5362962-.402053-1.0114394-.878676-1.4121094-1.416016l.0019531-.001953.6503906-.650391.0644532-.064453a6 6 0 0 1 -1.0292969-2.470703h-.0859375-.9199219-.0039062c-.0488-.33045-.0749719-.66509-.0761719-1 .0005-.33545.0259187-.66894.0742188-1h.0039062.921875.0898438a6 6 0 0 1 1.0234374-2.4726562l-.0625-.0625-.6503906-.6503907-.0039062-.0039062c.4020738-.5362962.8786756-1.0114394 1.4160156-1.4121094l.0019531.0019531.6503907.6503906.0644531.0644532a6 6 0 0 1 2.4707031-1.0292969v-.0859375-.9199219-.0039062c.33044-.0488.66509-.0749719 1-.0761719zm-2 4v6l5-3z" fill="#c0c0c0"/></svg>

<svg xmlns="http://www.w3.org/2000/svg" viewBox="0 0 24 24">
  <defs id="defs3051">
    <style type="text/css" id="current-color-scheme">
      .ColorScheme-Text {
        color:#c0c0c0;
      }
      </style>
  </defs>
 <path style="fill:currentColor;fill-opacity:1;stroke:none" 
     d="M 12 4 C 11.32479 4.004 10.65279 4.092995 10 4.265625 L 10 5.2988281 L 10 5.3105469 A 7 7 0 0 0 8.6835938 5.8554688 L 8.6757812 5.8476562 L 7.9433594 5.1152344 C 6.7764094 5.8032844 5.8032844 6.7764094 5.1152344 7.9433594 L 5.6367188 8.4648438 L 5.8554688 8.6835938 A 7 7 0 0 0 5.3085938 10 L 5.2949219 10 L 4.2597656 10 C 4.0891457 10.65304 4.00187 11.32505 4 12 C 4.004 12.67521 4.093005 13.34721 4.265625 14 L 5.2988281 14 L 5.3105469 14 A 7 7 0 0 0 5.8554688 15.316406 L 5.6367188 15.535156 L 5.1152344 16.056641 C 5.8032844 17.223601 6.7763994 18.196716 7.9433594 18.884766 L 8.4648438 18.363281 L 8.6835938 18.144531 A 7 7 0 0 0 10 18.691406 L 10 19 L 10 19.740234 C 10.65304 19.910854 11.32504 19.99813 12 20 C 12.67496 19.9981 13.34696 19.91085 14 19.740234 L 14 19 L 14 18.691406 A 7 7 0 0 0 15.316406 18.144531 L 15.535156 18.363281 L 16.056641 18.884766 C 17.223601 18.196716 18.196716 17.223601 18.884766 16.056641 L 18.363281 15.535156 L 18.144531 15.316406 A 7 7 0 0 0 18.689453 14 L 18.701172 14 L 19.734375 14 C 19.907004 13.34721 19.996 12.67521 20 12 C 19.9981 11.32505 19.91085 10.65304 19.740234 10 L 18.705078 10 L 18.691406 10 A 7 7 0 0 0 18.144531 8.6835938 L 18.363281 8.4648438 L 18.884766 7.9433594 C 18.196716 6.7764094 17.223591 5.8032844 16.056641 5.1152344 L 15.324219 5.8476562 L 15.316406 5.8554688 A 7 7 0 0 0 14 5.3105469 L 14 5.2988281 L 14 4.265625 C 13.34721 4.092995 12.67521 4.004 12 4 z M 12 5 C 12.33491 5.0012 12.66956 5.0273719 13 5.0761719 L 13 5.0800781 L 13 6 L 13 6.0859375 A 6 6 0 0 1 15.470703 7.1152344 L 15.535156 7.0507812 L 16.185547 6.4003906 L 16.1875 6.3984375 C 16.72484 6.7991075 17.201446 7.2742469 17.603516 7.8105469 L 17.599609 7.8144531 L 16.949219 8.4648438 L 16.886719 8.5273438 A 6 6 0 0 1 17.910156 11 L 18 11 L 18.921875 11 L 18.925781 11 C 18.974081 11.33106 18.9995 11.66455 19 12 C 18.9988 12.33491 18.972628 12.66955 18.923828 13 L 18.919922 13 L 18 13 L 17.914062 13 A 6 6 0 0 1 16.884766 15.470703 L 16.949219 15.535156 L 17.599609 16.185547 L 17.601562 16.1875 C 17.200893 16.72484 16.725753 17.201456 16.189453 17.603516 L 16.185547 17.599609 L 15.535156 16.949219 L 15.472656 16.886719 A 6 6 0 0 1 13 17.910156 L 13 18 L 13 18.921875 L 13 18.925781 C 12.66894 18.974081 12.33545 18.9995 12 19 C 11.66455 18.9995 11.33106 18.974081 11 18.925781 L 11 18.921875 L 11 18 L 11 17.910156 A 6 6 0 0 1 8.5273438 16.886719 L 8.4648438 16.949219 L 7.8144531 17.599609 L 7.8105469 17.603516 C 7.2742507 17.201463 6.7991075 16.72484 6.3984375 16.1875 L 6.4003906 16.185547 L 7.0507812 15.535156 L 7.1152344 15.470703 A 6 6 0 0 1 6.0859375 13 L 6 13 L 5.0800781 13 L 5.0761719 13 C 5.0273719 12.66955 5.0012 12.33491 5 12 C 5.0005 11.66455 5.0259187 11.33106 5.0742188 11 L 5.078125 11 L 6 11 L 6.0898438 11 A 6 6 0 0 1 7.1132812 8.5273438 L 7.0507812 8.4648438 L 6.4003906 7.8144531 L 6.3964844 7.8105469 C 6.7985582 7.2742507 7.27516 6.7991075 7.8125 6.3984375 L 7.8144531 6.4003906 L 8.4648438 7.0507812 L 8.5292969 7.1152344 A 6 6 0 0 1 11 6.0859375 L 11 6 L 11 5.0800781 L 11 5.0761719 C 11.33044 5.0273719 11.66509 5.0012 12 5 z M 10 9 L 10 15 L 15 12 L 10 9 z "
     class="ColorScheme-Text"
     />
</svg>
